images_sukapura_svg/cmd/lc_removefiltersort.svg

<svg viewBox="0 0 24 24" xmlns="http://www.w3.org/2000/svg"><g transform="translate(-1)"><g><path d="m4.9609375 3.5-.9511719.4042969v.9746093.1992188l5.9003906 8.25c.062016.08585.095491.189015.095703.294922v3.876953 3.5c.0037.0031.0061.0047.0098.0078 1.4908488.763675 2.4898268.748837 3.9843408-.0078v-.470703-1.578125-1.451172h-.0059v-3.876953c.00021-.105907.03369-.209072.0957-.294922l5.90039-8.25v-.1992188-.9746093l-.951128-.4042969z" fill="#848489"/><path d="m4.871557 2.125841c-.1322075.0000806-.2591191.0519671-.3535156.1445312l-1.3656976 1.0597059c-.048282.046622-.086791.1023955-.1132813.1640625v.00195c-.0258489.0618744-.0391276.1282648-.0390625.1953156v1.1875.3613282c-.0003594.1056921.032428.2088371.09375.2949218l3.9042969 5.4648438 1.9902343 2.785156v5.427735.179687 2.101563c-.0002768.279493.2128834.429733.5058594.505859 1.5058594.5 3.5058594.5 5.0117204 0 .279493.000277.506136-.226366.50586-.505859v-2.101563-.179687-5.427735l1.990232-2.785156 3.904297-5.4648438c.061322-.0860848.094109-.1892297.09375-.2949218v-1.5488282c.000065-.067051-.01321-.1334444-.03906-.1953124-.02626-.062365-.06479-.1188197-.113282-.1660157l-1.347658-.8300781c-.094397-.0925641-.221308-.1444507-.353516-.1445312-4.681374-1.094353-9.188627-1.69980574-14.274927-.2296278zm.0893805 1.374159c4.3445021-1.712013 8.9234615-2.2712757 14.0781245 0l.951172.4042969v.9746093.1992188l-5.90039 8.25c-.06201.08585-.09549.189015-.0957.294922v3.876953h.005856v1.451172 1.578125.470703c-1.5.759415-2.5.772208-4 0v-.470703-1.578125-1.451172h.0059v-3.876953c-.000212-.105907-.033687-.209071-.095703-.294922l-5.9003906-8.25v-.1992188-.9746093z" fill="#69696e"/><ellipse cx="11.994952" cy="3.764185" fill="#cdcdd0" rx="8.493799" ry="2.263032" stroke="#69696e" stroke-linecap="round" stroke-linejoin="round" stroke-width="1.002306"/></g><g><path d="m20.286096 10.297939-7.006293 7.084558-1.129346 2.420883c-.290506.290127-.147295 1.007368.143211 1.297496l1.981695 2.05082c.145253.145064.837068.2705 1.02663.2705s.32448-.19703.469734-.342106l1.873447-.370043 5.076889-5.511248.671356-3.731186z" fill="none" stroke="#b6496c"/><path d="m16.518661 20.388672 6.495399-6.642082-2.741063-2.75182-6.590273 6.561871z" fill="#e68497"/><path d="m15.049171 22.865815c.189562 0 .378184-.07172.523438-.216797l.957771-2.242768-2.847656-2.849609-.994881 2.211518c-.290506.290127-.290506.756747 0 1.046875l1.835938 1.833984c.145254.145064.335828.216797.52539.216797z" fill="#e7acbc"/><path d="m15.572609 22.649018 1.863391-.367556 4.949484-5.279652.628576-3.25522-6.48368 6.65966z" fill="#ab4263"/><path d="m14.07595 17.924051 6.253163-6.227848 2.278482 2.405063" fill="none" stroke="#f398b3"/></g></g></svg>

<?xml version="1.0" encoding="UTF-8" standalone="no"?>
<svg
   xmlns:dc="http://purl.org/dc/elements/1.1/"
   xmlns:cc="http://creativecommons.org/ns#"
   xmlns:rdf="http://www.w3.org/1999/02/22-rdf-syntax-ns#"
   xmlns:svg="http://www.w3.org/2000/svg"
   xmlns="http://www.w3.org/2000/svg"
   xmlns:sodipodi="http://sodipodi.sourceforge.net/DTD/sodipodi-0.dtd"
   xmlns:inkscape="http://www.inkscape.org/namespaces/inkscape"
   viewBox="0 0 24 24"
   version="1.1"
   id="svg6"
   sodipodi:docname="lc_removefiltersort.svg"
   inkscape:export-filename="/home/rizmut/Dokumen/Rizmut/Github/libreoffice-style-sukapura/images_sukapura/cmd/lc_removefiltersort.png"
   inkscape:export-xdpi="96"
   inkscape:export-ydpi="96"
   inkscape:version="0.92.3 (unknown)">
  <metadata
     id="metadata12">
    <rdf:RDF>
      <cc:Work
         rdf:about="">
        <dc:format>image/svg+xml</dc:format>
        <dc:type
           rdf:resource="http://purl.org/dc/dcmitype/StillImage" />
        <dc:title></dc:title>
      </cc:Work>
    </rdf:RDF>
  </metadata>
  <defs
     id="defs10" />
  <sodipodi:namedview
     pagecolor="#ffffff"
     bordercolor="#666666"
     borderopacity="1"
     objecttolerance="10"
     gridtolerance="10"
     guidetolerance="10"
     inkscape:pageopacity="0"
     inkscape:pageshadow="2"
     inkscape:window-width="1366"
     inkscape:window-height="706"
     id="namedview8"
     showgrid="true"
     inkscape:zoom="13.906433"
     inkscape:cx="7.7390986"
     inkscape:cy="15.509772"
     inkscape:window-x="0"
     inkscape:window-y="0"
     inkscape:window-maximized="1"
     inkscape:current-layer="svg6">
    <inkscape:grid
       type="xygrid"
       id="grid822"
       spacingx="0.5"
       spacingy="0.5"
       empspacing="2" />
  </sodipodi:namedview>
  <g
     id="g1631"
     transform="translate(-1)">
    <g
       id="g873">
      <path
         style="fill:#848489;fill-opacity:1"
         d="M 4.9609375,3.5 4.0097656,3.9042969 V 4.8789062 5.078125 l 5.9003906,8.25 c 0.062016,0.08585 0.095491,0.189015 0.095703,0.294922 V 17.5 21 c 0.0037,0.0031 0.0061,0.0047 0.0098,0.0078 C 11.506508,21.771475 12.505486,21.756637 14,21 V 20.529297 18.951172 17.5 h -0.0059 v -3.876953 c 2.1e-4,-0.105907 0.03369,-0.209072 0.0957,-0.294922 l 5.90039,-8.25 V 4.8789062 3.9042969 L 19.039062,3.5 Z"
         id="path4"
         inkscape:connector-curvature="0" />
      <path
         style="fill:#69696e;fill-opacity:1"
         d="M 4.871557,2.125841 C 4.7393495,2.1259216 4.6124379,2.1778081 4.5180414,2.2703722 L 3.1523438,3.3300781 c -0.048282,0.046622 -0.086791,0.1023955 -0.1132813,0.1640625 v 0.00195 C 3.0132136,3.557965 2.9999349,3.6243554 3,3.6914062 v 1.1875 0.3613282 C 2.9996406,5.3459265 3.032428,5.4490715 3.09375,5.5351562 L 6.9980469,11 8.9882812,13.785156 v 5.427735 0.179687 2.101563 C 8.9880044,21.773634 9.2011646,21.923874 9.4941406,22 11,22.5 13,22.5 14.505861,22 c 0.279493,2.77e-4 0.506136,-0.226366 0.50586,-0.505859 V 19.392578 19.212891 13.785156 L 17.001953,11 20.90625,5.5351562 C 20.967572,5.4490714 21.000359,5.3459265 21,5.2402344 V 3.6914062 C 21.000065,3.6243552 20.98679,3.5579618 20.96094,3.4960938 20.93468,3.4337288 20.89615,3.3772741 20.847658,3.3300781 L 19.5,2.5 C 19.405603,2.4074359 19.278692,2.3555493 19.146484,2.3554688 14.46511,1.2611158 9.957857,0.65566306 4.871557,2.125841 Z M 4.9609375,3.5 C 9.3054396,1.787987 13.884399,1.2287243 19.039062,3.5 l 0.951172,0.4042969 V 4.8789062 5.078125 l -5.90039,8.25 c -0.06201,0.08585 -0.09549,0.189015 -0.0957,0.294922 V 17.5 H 14 V 18.951172 20.529297 21 c -1.5,0.759415 -2.5,0.772208 -4,0 V 20.529297 18.951172 17.5 h 0.0059 V 13.623047 C 10.005688,13.51714 9.972213,13.413976 9.910197,13.328125 l -5.9003906,-8.25 V 4.8789062 3.9042969 Z"
         id="path2"
         inkscape:connector-curvature="0"
         sodipodi:nodetypes="cccccccccccccccccccccccccccccccccccccccccccccccccccc" />
      <ellipse
         cx="11.994952"
         cy="3.764185"
         rx="8.4937992"
         ry="2.2630322"
         id="path832"
         style="opacity:1;fill:#cdcdd0;fill-opacity:1;stroke:#69696e;stroke-width:1.00230575;stroke-linecap:round;stroke-linejoin:round;stroke-miterlimit:4;stroke-dasharray:none;stroke-opacity:1" />
    </g>
    <g
       id="g1589">
      <path
         d="m 20.286096,10.297939 -7.006293,7.084558 -1.129346,2.420883 c -0.290506,0.290127 -0.147295,1.007368 0.143211,1.297496 l 1.981695,2.05082 c 0.145253,0.145064 0.837068,0.2705 1.02663,0.2705 0.189562,0 0.32448,-0.19703 0.469734,-0.342106 l 1.873447,-0.370043 5.076889,-5.511248 0.671356,-3.731186 z"
         id="path1012"
         inkscape:connector-curvature="0"
         style="fill:none;stroke:#b6496c" />
      <path
         d="M 16.518661,20.388672 23.01406,13.74659 20.272997,10.99477 13.682724,17.556641 Z"
         id="path1018"
         inkscape:connector-curvature="0"
         style="fill:#e68497" />
      <path
         d="m 15.049171,22.865815 c 0.189562,0 0.378184,-0.07172 0.523438,-0.216797 l 0.957771,-2.242768 -2.847656,-2.849609 -0.994881,2.211518 c -0.290506,0.290127 -0.290506,0.756747 0,1.046875 l 1.835938,1.833984 c 0.145254,0.145064 0.335828,0.216797 0.52539,0.216797 z"
         id="path1020"
         inkscape:connector-curvature="0"
         style="fill:#e7acbc" />
      <path
         d="M 15.572609,22.649018 17.436,22.281462 22.385484,17.00181 23.01406,13.74659 16.53038,20.40625 Z"
         id="path1022"
         inkscape:connector-curvature="0"
         style="fill:#ab4263" />
      <path
         d="m 14.07595,17.924051 6.253163,-6.227848 2.278482,2.405063"
         id="path1024"
         inkscape:connector-curvature="0"
         style="fill:none;stroke:#f398b3" />
    </g>
  </g>
</svg>
